packages/kaspersky-hexa-ui-icons/src/iconsSVGs/16/Notification.svg

<svg width="16" height="16" viewBox="0 0 16 16" fill="none" xmlns="http://www.w3.org/2000/svg">
<path fill-rule="evenodd" clip-rule="evenodd" d="M3.78595 3.31172C2.99279 3.31172 2.3498 3.9547 2.3498 4.74786V10.2625C2.3498 11.0557 2.99279 11.6987 3.78595 11.6987H5.96101C6.13508 11.6987 6.30188 11.7685 6.42405 11.8925L7.99919 13.4913L9.57434 11.8925C9.69651 11.7685 9.86331 11.6987 10.0374 11.6987H12.2137C13.0068 11.6987 13.6498 11.0557 13.6498 10.2625V4.74786C13.6498 3.9547 13.0068 3.31172 12.2137 3.31172H3.78595ZM1.0498 4.74786C1.0498 3.23673 2.27482 2.01172 3.78595 2.01172H12.2137C13.7248 2.01172 14.9498 3.23673 14.9498 4.74786V10.2625C14.9498 11.7737 13.7248 12.9987 12.2137 12.9987H10.3095L8.58607 14.748C8.26337 15.0755 7.73502 15.0755 7.41232 14.748L5.68893 12.9987H3.78595C2.27482 12.9987 1.0498 11.7737 1.0498 10.2625V4.74786Z" fill="black"/>
</svg>

<svg xmlns="http://www.w3.org/2000/svg" width="16" height="16" fill="none" viewBox="0 0 16 16"><path fill="#000" fill-rule="evenodd" d="M3.786 3.3117c-.7932 0-1.4362.643-1.4362 1.4362v5.5146c0 .7932.643 1.4362 1.4362 1.4362h2.175a.65.65 0 0 1 .463.1938l1.5752 1.5988 1.5751-1.5988a.65.65 0 0 1 .4631-.1938h2.1763c.7931 0 1.4361-.643 1.4361-1.4362V4.7479c0-.7932-.643-1.4362-1.4361-1.4362zM1.0498 4.748c0-1.5112 1.225-2.7362 2.7362-2.7362h8.4277c1.5111 0 2.7361 1.225 2.7361 2.7362v5.5146c0 1.5112-1.225 2.7362-2.7361 2.7362h-1.9042L8.5861 14.748a.824.824 0 0 1-1.1738 0L5.689 12.9987H3.786c-1.511 0-2.7361-1.225-2.7361-2.7362z"/></svg>
